Sources/FrostedUI/Resources/Icons.xcassets/converge24.imageset/converge-24.svg

<svg width="24" height="24" viewBox="0 0 24 24" fill="none" xmlns="http://www.w3.org/2000/svg" data-fui-icon="true">
  <path
    d="M3.9375 2.25C5.33511 2.25 6.50655 3.20646 6.83984 4.5H8.6748C10.0791 4.5 11.3573 5.31022 11.957 6.58008L14.1621 11.25H20.1934L18.0176 8.95312C17.733 8.65241 17.7463 8.17735 18.0469 7.89258C18.3476 7.60803 18.8227 7.62129 19.1074 7.92188L22.4824 11.4844C22.7561 11.7736 22.7561 12.2264 22.4824 12.5156L19.1074 16.0781C18.8226 16.3787 18.3476 16.392 18.0469 16.1074C17.7463 15.8226 17.733 15.3476 18.0176 15.0469L20.1934 12.75H14.1621L11.957 17.4199C11.3573 18.6898 10.0791 19.5 8.6748 19.5H6.83984C6.50655 20.7935 5.33511 21.75 3.9375 21.75C2.28065 21.75 0.9375 20.4069 0.9375 18.75C0.9375 17.0931 2.28065 15.75 3.9375 15.75C5.33511 15.75 6.50655 16.7065 6.83984 18H8.6748C9.49886 18 10.2497 17.5244 10.6016 16.7793L12.8584 12L10.6016 7.2207C10.2497 6.47555 9.49886 6 8.6748 6H6.83984C6.50655 7.29354 5.33511 8.25 3.9375 8.25C2.28065 8.25 0.9375 6.90685 0.9375 5.25C0.9375 3.59315 2.28065 2.25 3.9375 2.25ZM3.9375 17.25C3.10907 17.25 2.4375 17.9216 2.4375 18.75C2.4375 19.5784 3.10907 20.25 3.9375 20.25C4.76593 20.25 5.4375 19.5784 5.4375 18.75C5.4375 17.9216 4.76593 17.25 3.9375 17.25ZM3.9375 3.75C3.10907 3.75 2.4375 4.42157 2.4375 5.25C2.4375 6.07843 3.10907 6.75 3.9375 6.75C4.76593 6.75 5.4375 6.07843 5.4375 5.25C5.4375 4.42157 4.76593 3.75 3.9375 3.75Z"
    fill="currentColor"
  />
</svg>

<svg xmlns="http://www.w3.org/2000/svg" width="24" height="24" fill="none" data-fui-icon="true" viewBox="0 0 24 24"><path fill="currentColor" d="M3.938 2.25c1.397 0 2.569.956 2.902 2.25h1.835a3.63 3.63 0 0 1 3.282 2.08l2.205 4.67h6.031l-2.175-2.297a.75.75 0 0 1 1.09-1.031l3.374 3.562a.75.75 0 0 1 0 1.032l-3.375 3.562a.75.75 0 0 1-1.09-1.031l2.176-2.297h-6.03l-2.206 4.67a3.63 3.63 0 0 1-3.282 2.08H6.84a2.999 2.999 0 0 1-5.902-.75A3 3 0 0 1 6.84 18h1.835c.824 0 1.575-.476 1.927-1.22L12.858 12l-2.256-4.78A2.13 2.13 0 0 0 8.675 6H6.84a2.998 2.998 0 0 1-5.902-.75 3 3 0 0 1 3-3m0 15a1.5 1.5 0 1 0 0 3 1.5 1.5 0 0 0 0-3m0-13.5a1.5 1.5 0 1 0 0 3 1.5 1.5 0 0 0 0-3"/></svg>
